X: 1
T:Come West Along the Road
S:IrTrad; Naka Ishii, 6/97
M:4/4
L:1/8
R:reel
K:G
d2BG d2BG|G2Bd eage|
d2BG d2BG|ABcd edBd:|
|g2bg egdg|egdg edBd|
g2bg egdB|ABcd edBd|
gabg egdg|egdg edBd|
gabg efge|dega bage||
